X:1
T:Illumina oculos meos
T:Illumina oculos meos
T:johann Feldmayr (ca. 1575-ca. 1625)
T:©2013 CPDL
T:©2013 CPDL
T:©2013 CPDL
T:©2013 CPDL
T:©2013 CPDL
T:©2013 CPDL
T:©2013 CPDL
T:©2013 CPDL
T:©2013 CPDL
T:©2013 CPDL
T:©2013 CPDL
T:©2013 CPDL
T:©2013 CPDL
T:©2013 CPDL
C:johann Feldmayr (ca. 1575-ca. 1625)
Z:©2013 CPDL
%%score [ 1 2 3 ] { ( 4 6 ) | 5 }
L:1/8
Q:1/4=116
M:2/2
K:C
V:1 alto nm="Vox suprema" snm="A"
V:2 tenor nm="Vox media" snm="T"
V:3 bass nm="Vox infima" snm="B"
V:4 treble nm="Partitura" snm="B.c."
V:6 treble 
V:5 bass 
V:1
 z8 |[M:2/2][K:treble] D4 D3 D | A,2 A3 A G2 | AGFE F2 E2 | z4 z2 E/F/G/A/ | F6 FF | EDCB, C4 | %7
w: |Il- lu- mi-|na o- cu- los|me- * * * * os.|o- * * *|* cu- los|me- * * * *|
 A,8 | z4 z2 A2 | A3 A A,2 D2- | DD C2 F,3 G,/A,/ | _B,4 C2 D2- | DD ^C2 DEFG | A2 A,2 z2 E2- | %14
w: os|Il-|lu- mi- na o-|* cu- los me- * *|* os, o-|* cu- los me- * * *|* os o-|
 E2 E2 E4 | E4 E4 | z2 A2 G2 F2 | z4 z2 F2 | E2 D2 z4 | z2 E4 AG | ^FE D4 C2 | B,4 C4 | B,8 | ^C8 | %24
w: * cu- los|me- os|ne un- quam|ne|un- quam|ob- dor- *|* * * mi-|am in|mor-|te|
 z4 E4 | G2 E2 DCDE | F2 G2 z2 D2 | E3 D C2 F2 | E4 A4 | z2 GF E2 E2 | F4 E2 ED | C2 C2 FEFG | %32
w: ne|quan- do di- * * *|* cat ne|quan- * * do|di- cat|i- ni- mi- cus|me- us i- ni-|mi- cus me- * * *|
 A4 D2 B,A, | G,2 GF EDCB, | A,4 B,CDB, | ^C2 D4 C2 | D3 C/B,/ A,4 | z2 C2 C2 D2 | E2 A2 G2 F2 | %39
w: * us i- ni-|mi- cus _ _ _ _ _|_ me- * * *||us _ _ _|prae- va- lu-|i ad- ver- sus|
 E2 FG A2 A,2 | z2 F2 E2 D2 | CA, F2 E2 A2- | A2 F3 E D2 | !fermata!^C8 ||"^Secunda pars" z4 D4 | %45
w: e- * * * um|ad- ver- sus|e- * * um ad-|* ver- sus e-|um|In|
 A,2 B,2 C2 D2 | EDEF C2 F2 | E8 | F8 | z2 A2 F2 G2 | FG A4 ^G2 | A2 A2 D2 E2 | F2 G2 A2 GF | %53
w: ma- nus tu- as|Do- * * * * mi-|ne,|_|in ma- nus|tu- as Do- mi-|ne, In ma- nus|tu- as Do- * *|
 E2 F2 E4 | z2 G4 G2 | F2 D2 A,2 B,2 | C4 G,4 | z4 G,4 | C6 F2 | ED D4 ^C2 | D4 z4 | z2 F2 E2 C2 | %62
w: * mi- ne,|Do- mi-|ne, In ma- nus|tu- as|in|ma- nus|tu- as Do- mi-|ne,|com- men- do|
 B,2 A,2 A,2 ^G,2 | A,2 A2 G2 E2 | F2 E2 E2 G2 | A4 z2 E2 | D2 B,2 C3 C | F2 E4 C2 | z4 A4- | %69
w: spi- ri- tum me-|um, com- men- do|spi- ri- tum me-|um com-|men- do spi- ri-|tum me- um,|re-|
 A2 G2 F3 E | D8 | z2 GF E2 E2 | A,2 AG F2 F2 | E4 z4 | z2 G3 G E2 | A2 G2 E3 E | F2 D2 A,4- | %77
w: * de- mi- sti|me|re- de- mi- sti|me re- de- mi- sti|me|Do- mi- ne|De- us Do- mi-|ne De- us|
 A,2 F3 F E2 | D3 E F2 E2 | z2 A3 A G2 | C2 F2 E3 D/E/ | F4 E4 | A,G,A,B, CB,CD | EDEF C4- | %84
w: _ Do- mi- ne|De- * * us|Do- mi- ne|De- us ve- * *|* ri-|ta- * * * * * * *||
 C2 F2 E4 | !fermata!^F8 |] %86
w: |tis.|
V:2
 z8 |[M:2/2][K:treble-8] z8 | z8 | A4 A3 A | D2 d3 d c2 | _B2 AG A3 =B | cBcd e4- | e2 d4 c2 | %8
w: |||Il- lu- mi-|na o- cu- los|me- * * * *|||
 B4 ^c4 | z8 | z4 d4 | d3 d A2 f2- | ff e2 f4- | f4 e2 A2- | AA ^G2 ABcA | B4 ^c2 A2 | G2 F2 z4 | %17
w: * os.||Il-|lu- mi- na o-|* cu- los me-|* os, o-|* cu- los me- * * *|* os ne|un- quam|
 z2 f2 e2 dd | ^c2 d4 f2 | e3 B e4 | A4 B4- | B4 A4- | A4 ^G4 | A4 e4 | e2 e2 cBcd | e2 c2 z2 B2 | %26
w: ne un- quam ne|un- quam ob-|dor- mi- am|in mor-|||te ne|quan- do di- * * *|* cat ne|
 c2 e2 d2 BB | c2 G2 AGAB | ^c4 d2 d=c | B2 B2 c2 G2 | z2 dc BB c2- | c2 A2 z2 AG | ^F2 F2 G4 | %33
w: quan- do di- cat ne|quan- do di- * * *|* cat i- ni-|mi- cus me- us|i- ni- mi- cus me-|* us i- ni-|mi- cus me-|
 E2 ed cBAG | F2 D2 G4- | G2 F2 E4 | D2 F2 F2 G2 | A2 f2 e2 d2 | ^c2 d2 z2 A2 | A3 G F2 f2 | %40
w: us i- ni- mi- * * *|* cus me-||us prae- va- lu-|i ad- ver- sus|e- um prae-|va- lu- i ad-|
 e2 d2 ^c2 df | e2 d3 ^c/B/ c2 | d3 c/B/ A4 | !fermata!A8 || A4 D2 E2 | F2 G2 A2 B2 | cBcd e2 d2- | %47
w: ver- sus e- um ad-|ver- sus _ _ _|e- * * *|um|In ma- nus|tu- as Do- *||
 d2 ^c2 c4 | d4 A2 B2 | c2 de f2 d2 | d4 B4 | c4 z4 | z2 e2 A2 B2 | cBAB c2 d2 | ed c4 B2 | %55
w: * mi- ne,|In ma- nus|tu- * * * as|Do- mi-|ne,|In ma- nus|tu- * * * * as|Do- * * mi-|
 A2 F2 F2 G2 | A4 E2 e2 | B2 c2 d2 B2 | ABcd e2 A2 | _BAGF E3 E | D2 A2 G2 E2 | FGAB cd e2- | %62
w: ne, In ma- nus|tu- as in|ma- nus tu- as|Do- * * * * *|* * * * * mi-|ne, com- men- do|spi- * * * * * *|
 e2 e2 d2 B2 | c4 z4 | c4 B2 c2 | c2 d2 G2 A2 | B4 z2 e2 | d2 B2 c2 A2 | AGAB c2 d2 | ^c4 d4 | %70
w: * ri- tum me-|um,|com- men- do|spi- ri- tum me-|um, com-|men- do spi- ri-|tum _ _ _ _ _|me- um|
 z2 dc _B3 A | G4 c3 B | c2 c2 d2 AB | cdec d2 G2 | c4 B2 c2 | cA d4 ^c2 | d2 f3 f e2 | d6 ^c2 | %78
w: re- de- mi- sti|me re- de-|mi- sti me Do- *|* * * * * mi-|ne De- us|ve- ri- ta- *|tis. Do- mi- ne|De- us|
 z2 d3 d c2- | c2 f4 e2 | z2 d3 d ^c2 | d2 A2 A2 A2 | FEFG AGAB | cBcd edef | e2 d4 ^c2 | %85
w: Do- mi- ne|_ De- us|Do- mi- ne|De- us ve- ri-|ta- * * * * * * *|||
 !fermata!d8 |] %86
w: tis.|
V:3
 z8 |[M:2/2] z8 | z8 | z8 | z8 | D,4 D,3 D, | A,,2 A,3 A, G,2 | F,D,F,G, A,B, A,2- | A,2 ^G,2 A,4 | %9
w: |||||Il- lu- mi-|na o- cu- los|me- * * * * * *|* * os.|
 z8 | z8 | z4 z4 | A,4 A,3 A, | D,2 D3 D C2 | B,4 A,4- | A,2 ^G,2 A,4 | z4 z2 F,2 | E,2 D,2 z4 | %18
w: |||Il- lu- mi-|na o- cu- los|me- *|* * os,|ne|un- quam|
 z2 A,2 _B,2 A,2 | ^G,4 A,4- | A,4 ^F,4 | G,4 E,4 | E,8 | E,6 A,2 | G,2 C2 G,4 | C,D,E,C, G,2 G,2 | %26
w: ne un- quam|ob- dor-|* mi-|am in|mor-|te ne|quan- do di-|cat _ _ _ _ ne|
 A,2 C2 G,4 | C,4 z4 | z2 A,G, ^F,2 F,2 | G,2 G,,2 z2 CB, | A,2 A,2 G,4 | A,2 F,E, D,4 | D,8 | %33
w: quan- do di-|cat|i- ni- mi- cus|me- us i- ni-|mi- cus me-|us i- ni- mi-|cus|
 z4 C,2 C,2 | D,4 D,4 | A,8 | D,4 D,4 | F,3 G, A,4 | z2 F,2 E,2 D,2 | ^C,2 D,2 z4 | z2 A,2 A,4- | %41
w: i- ni-|mi- cus|me-|us prae-|va- lu- i|ad- ver- sus|e- um|prae- va-|
 A,2 A,2 A,2 A,2 | F,2 D,2 F,4 | !fermata!E,8 || z8 | z8 | z8 | z4 A,4 | D,2 E,2 F,2 G,2 | %49
w: * lu- i ad-|ver- sus e-|um||||In|ma- nus tu- as|
 A,G,F,G, A,F,_B,G, | A,3 G,/F,/ E,3 E, | A,,4 z4 | z8 | z2 D,2 A,,2 B,,2 | C,D,E,F, G,2 D,2 | %55
w: Do- * * * * * * *|* * * * mi-|ne,||In ma- nus|tu- * * * * as|
 z4 D,4 | A,,2 B,,2 C,4 | G,,2 G,2 D,2 E,2 | F,2 E,D, C,2 D,2 | G,,4 A,,4 | D,4 z4 | z4 z2 A,2 | %62
w: in|ma- nus tu-|as In ma- nus|tu- * * * as|Do- mi-|ne,|com-|
 G,2 E,2 F,2 E,2 | E,4 D,2 G,2 | z2 A,2 G,2 E,2 | F,3 F, E,2 A,2- | A,2 ^G,2 A,4 | A,2 G,4 F,2 | %68
w: men- do spi- ri-|tum me- um,|com- men- do|spi- ri- tum me-|* * um|com- men- do|
 F,3 F, E,2 F,2 | E,4 z2 D,C, |"^*" _B,,3 A,, G,,2 G,F, | E,3 D, C,2 A,G, | F,3 E, D,4 | %73
w: spi- ri- tum me-|um, re- de-|mi- sti me re- de-|mi- sti me re- de-|mi- sti me|
 z2 G,3 G, E,2 | E,6 G,2 | F,2 _B,2 A,4 | A,8- | A,4 z2 A,2- | A,A, G,2 A,4- | A,2 F,2 _B,4 | A,8 | %81
w: Do- mi- ne|De- us|ve- ri- ta-|tis.|_ Do-|* mi- ne De-||us|
 z2 D,3 D, ^C,2 | D,4 E,4 | A,4 A,4 | A,8 | !fermata!D,8 |] %86
w: Do- mi- ne|De- us|ve- ri-|ta-|tis.|
V:4
 z8 |[M:2/2] [A,DF]4 [DFA]4 | [FAd]6 [Gc]2 | [FAc]2 [FAd]4 [EAe]2 | [F_Bd]4 [GBd]2 [EAc]2 | [Fd]8 | %6
 [Ec]8 | [DFA]4 [CEA]4 | [B,E^G]4 [^CEA]4 | [DFA]4 [CFA]2 [DF]2 | [DG_B]2 [CEA]2 [DFA]4 | %11
 [DG_B]4 [FAc]2 [FAd]2- | [FAd]2 [EA^c]2 [FAd]4 | [FAd]4 d2 c2 | A2 ^G2 [EAc]4 | A2 ^G2 [EA^c]4 | %16
 [EGc]2 [FA]2 [EG]2 [FA]2 | [EA]2 [FA]2 [^CEA]2 [DFA]2 | [^CA]2 [DA]2 [D_B]2 [FA]2 | %19
 [E^GB]4 [EA]4 | A4 B4- | [GB]4 [Ac]4 | A4 ^G4 | [EA^c]8 | [EGc]8 | [EGc]4 [DGB]4 | %26
 [FAc]2 [EGc]2 [DGB]4 | [EGc]4 [FAc]2 [FAd]2 | [EA^c]4 [^FAd]4 | [GBd]4 [Gce]4 | [FAd]4 B2 c2 | %31
 [FAc]4 [FAd]4 | [^FAd]4 [Gd]2 [GB]2 | [EGc]8 | [DFA]4 [DGB]4 | ^c2 d4 c2 | x8 | %37
 [FAc]4 [EAc]2 [FA]2 | [^CEA]2 [DFA]2 [EG]2 [DFA]2 | [^CEA]2 [DFA]2 [DFA]4 | %40
 [EA]2 [DFA]2 [^CEA]2 [DFA]2 | [CEA]2 [DFA]2 [EA]4 | [DFA]8 | !fermata![^CEA]8 || [DFA]8 | %45
 [DFA]4 [EA]2 [DB]2 | [Ec]6 [Fd]2- | d2 ^c2 [Ac]4 | [FAd]8 | [EAc]2 [FAd]4 [G_Bd]2 | %50
 [FAd]4 A2 ^G2 | [EAc]4 [GB]2 [Ec]2 | [FA]2 [EG]2 [CA]2 [EG]2 | [Ec]2 [FA]2 [Ec]4 |"^(4 3)" c6 B2 | %55
 [DFA]8 | [Ec]4 [Ec]4 | [GB]8 | [FAc]4 [EGc]2 [FA]2 | [G_B]4 [EA]4 | [DFA]4 [Gc]4 | [DFA]4 [CEA]4 | %62
 [EGB]2 [EAc]2 [FAd]2 [E^GB]2 | [EAc]4 [DGB]2 [CEG]2 | [CA]4 [B,G]2 [EG]2 | %65
 [CFA]2 [DFA]2 [B,EG]2 [CEA]2 | A2 ^G2 [CA]4 | [FA]2 [EG]4 [CA]2 | [DFA]4 A4 | [^CEA]4 [DFA]4 | %70
 [DF_B]4 [DGB]4 | [CEG]6 [CEA]2 | [CFA]4 [DFA]4 | [EGc]4 [DGd]2 [EGc]2 | [EAc]4 [EGB]2 [EG]2 | %75
"^(4 #3)" [FA]2 [DG]2 E4 | [DF]6 [CEA]2 | [DFA]6 [^CEA]2 | F2 _B2 [DF]2 [CE]2 | %79
 [CA]2 [DF]4 [_B,G]2 | [A,F]2 [DFA]2 [DEA]2 [^CEA]2 | [DFA]4 [A,EA]4 | [DFA]4 [CEA]4 | [CEA]8 | %84
 [CEA]2 [DFA]2 [EA]4 | !fermata![D^FA]8 |] %86
V:5
 z8 |[M:2/2] D,8 | D,6 E,2 | F,2 D,4 C,2 | _B,,A,,B,,G,, G,2 A,2 | D,8 | A,,6 B,,2 | D,4 A,,4 | %8
 !>!E,4 A,,4 | D,4 F,2 _B,2 | G,2 A,2 D,C,_B,,A,, | G,,2 G,2 F,2 D,2 |"^(6  5)\n(4 #3)" A,,4 D,4 | %13
 D,E,F,G,"^(4 3)" A,4 |"^4 3" E,4 A,,4 |"^(4 3)" E,4 A,,3 B,, | C,2 D,2 E,2 D,2 | %17
 ^C,2 D,2 A,,2 D,2 |"^()" A,2 ^F,2 G,2 D,2 | E,4 ^C,4 |"^(5 6)*" D,8 |"^5 6" E,8 |"^4  #3" E,,8 | %23
"^(#)" A,,8 | C,8 | C,4 G,4 | F,2 C,2 G,4 | C,4 F,2 D,2 |"^()" A,4 D,4 | G,4 C,4 | %30
 D,4"^(5 6)" E,4 | F,4 D,4 |"^()" D,4 B,,2 G,,2 | C,8 | D,4 G,,4 |"^7 6 8\n(#3)" A,,8 | D,8 | %37
 F,3 G,"^*" A,2 D,2 |"^()" A,2"^6" F,2 E,2 D,2 | ^C,2 D,2 D,4 | ^C,2 D,2"^()" A,,2 D,2 | %41
 A,,4 A,,4 | D,8 |"^(#)" A,,8 || D,8- | D,4 C,2 B,,2 | A,,4 A,4- | A,4 A,,4 | D,8 | A,,2 D,4 G,,2 | %50
 D,4 E,4 | A,,2 A,2 G,2 C,2 | D,2 E,2 F,2 E,D, | C,2 D,2 A,,4 | C,4 G,,4 | D,8 | A,,2 B,,2 C,4 | %57
 G,,8 | F,,G,,A,,B,, C,2 D,2 |"^(4 #3)" G,,4 A,,4 | D,4 E,2 C,2 | D,4 A,,4 | %62
"^(#)" E,2 C,2 D,2 E,2 | A,,4 B,,2 C,2 | A,,4 E,2 C,2 | F,2 D,2 E,2 C,2 |"^(7 #6)" B,,4 A,,2 A,2 | %67
 D,2 E,4 F,2 | D,E,F,D, A,,4- |"^(#)" A,,4 D,4 | _B,,4 G,,4 | C,6 A,,2 | F,4 D,4 | C,4 B,,2 C,2 | %74
 A,,B,,C,D, E,2 C,2 | F,2 G,2 A,2 A,,2 | D,6 C,2 | D,4 A,,4 | _B,,4 A,,4 | F,2 D,4 E,2 | %80
 F,2 D,2 A,,2 A,2 | D,6 ^C,2 | D,4 A,,4 | A,,8 | A,,4 A,,4 |"^()" D,8 |] %86
V:6
 x8 |[M:2/2] x8 | x8 | x8 | x8 | x8 | x8 | x8 | x8 | x8 | x8 | x8 | x8 | x4 [EA]4 | [EB]4 x4 | %15
 [EB]4 x4 | x8 | x8 | x8 | x8 | [D^F]8 | E8 | [EB]8 | x8 | x8 | x8 | x8 | x8 | x8 | x8 | x4 [EG]4 | %31
 x8 | x8 | x8 | x8 | G2 F2 E4 | [DFd]8 | x8 | x8 | x8 | x8 | x4 D2 ^C2 | x8 | x8 || x8 | x8 | x8 | %47
 E8 | x8 | x8 | x4 [EB]4 | x8 | x8 | x8 | [EG]4 [DG]4 | x8 | x8 | x8 | x8 | D6 ^C2 | x4 C2 E2 | %61
 x8 | x8 | x8 | x8 | x8 | D4 x4 | x8 | x4 [CE]2 [DF]2 | x8 | x8 | x8 | x8 | x8 | x8 | x4 D2 ^C2 | %76
 x8 | x8 | D4 x4 | x8 | x8 | x8 | x8 | x8 | x4 D2 ^C2 | x8 |] %86

